X:1
T:The Ebenezer
M:4/4
L:1/4
K:E
 B,| E E E E/2F/2| G/2A/2 B G z| E3/2 E/2 F G| A/4 B3/4 c/2 B3/2 z|\
 c c/2c/2 c e| B/2 B3/2 B3/2 G/2| A3/4 A/4- G F E| G E C B,| G/2G/2 F F2-|\
 F z E/2E/2 G| G3 z/2 z/4 F/4| E c B3/2 z/4 D/4| F E2||
